X: 283
T: Brown Bess
N: There are two tunes numbered 283 in this collection.
%R: slip-jig
Z: 2014 John Chambers <jc:trillian.mit.edu>
B: Preston "Twenty four Country Dances for the Year 1796" p.122 #2
F: http://www.vwml.org/browse/browse-collections-dance-tune-books/browse-prestons1796# 2014-8-10
M: 9/8
L: 1/8
K: D
B !segno!|:\
(AFD) (DFD) (AFD) | (B/c/d).B (AFD) (BGE) |\
(AFD) (DFD) (AFD) | (Bgf) (edc) (Bcd) "_fine":|
|:\
(dfd) (afd) (bge) | (dfd) (afd) (ecA) |\
(dfd) (afd) (bge) | agf efd cB"_Da Capo"A !segno!:|
% - - - - - - - - - - - - - - - - - - - - - - - - -
%%begintext align
%% Hands 3 round with the 2d Lady & same
%% with 2d Gent down the middle up again
%% cast off & Allemand
%%endtext
% - - - - - - - - - - - - - - - - - - - - - - - - -

%%sep 1 1 500
%%sep 1 1 500
